static/assets/img/icons/theme/home/air-ballon.svg

<svg height="24" viewBox="0 0 24 24" width="24" xmlns="http://www.w3.org/2000/svg"><g fill="none" fill-rule="evenodd"><path d="m0 0h24v24h-24z" opacity="0"/><g fill="#000"><path d="m10.1573188 15.7101991c.5746129.1612649 1.1800484.247441 1.8053586.247441s1.2307457-.0861761 1.8053586-.247441l.5103641 1.3782872c.017749.0479328.0268406.0987078.0268406.1499 0 .2357789-.1887352.4269155-.4215518.4269155l-1.0779079-.0271821c.0558946 1.1877534.4883844 1.8703793 1.6111334 2.2493907.4417385.1491197.6804717.6326612.5332256 1.0800201-.1472462.447359-.6247126.6891297-1.0664511.5400101-1.8113719-.611473-2.7052608-1.9192262-2.7620701-3.8422388h-1.0799528c-.05054914 0-.10068616-.0092073-.14801676-.0271821-.21799302-.0827875-.32844192-.3288667-.24669454-.5496334z" fill-rule="nonzero"/><path d="m12 16c-3.86599325 0-7-3.1340068-7-7 0-3.86599325 3.13400675-7 7-7 3.8659932 0 7 3.13400675 7 7 0 3.8659932-3.1340068 7-7 7zm-3.18404227-7.19922647c-.02528231-.36155398-.3388751-.63415604-.70042909-.60887372s-.63415604.33887511-.60887372.7004291c.11613705 1.66083719.89001545 2.97121769 2.28836746 3.87481039.30441262.1967065.71064992.1093935.90735642-.195019.1967066-.3044126.1093936-.7106499-.195019-.9073565-1.0513713-.6793793-1.60408274-1.6152657-1.69140207-2.86399027z" opacity=".3"/></g></g></svg>

<svg width="24px" height="24px" viewBox="0 0 24 24" version="1.1" xmlns="http://www.w3.org/2000/svg" xmlns:xlink="http://www.w3.org/1999/xlink">
    <title>Icon For Air-ballon</title>
    <g stroke="none" stroke-width="1" fill="none" fill-rule="evenodd">
        <rect opacity="0" x="0" y="0" width="24" height="24"></rect>
        <path d="M10.1573188,15.7101991 C10.7319317,15.871464 11.3373672,15.9576401 11.9626774,15.9576401 C12.5879876,15.9576401 13.1934231,15.871464 13.768036,15.7101991 L14.2784001,17.0884863 C14.2961491,17.1364191 14.3052407,17.1871941 14.3052407,17.2383863 C14.3052407,17.4741652 14.1165055,17.6653018 13.8836889,17.6653018 L12.805781,17.6381197 C12.8616756,18.8258731 13.2941654,19.508499 14.4169144,19.8875104 C14.8586529,20.0366301 15.0973861,20.5201716 14.95014,20.9675305 C14.8028938,21.4148895 14.3254274,21.6566602 13.8836889,21.5075406 C12.072317,20.8960676 11.1784281,19.5883144 11.1216188,17.6653018 L10.041666,17.6653018 C9.99111686,17.6653018 9.94097984,17.6560945 9.89364924,17.6381197 C9.67565622,17.5553322 9.56520732,17.309253 9.6469547,17.0884863 L10.1573188,15.7101991 Z" fill="#000000" fill-rule="nonzero"></path>
        <path d="M12,16 C8.13400675,16 5,12.8659932 5,9 C5,5.13400675 8.13400675,2 12,2 C15.8659932,2 19,5.13400675 19,9 C19,12.8659932 15.8659932,16 12,16 Z M8.81595773,8.80077353 C8.79067542,8.43921955 8.47708263,8.16661749 8.11552864,8.19189981 C7.75397465,8.21718213 7.4813726,8.53077492 7.50665492,8.89232891 C7.62279197,10.5531661 8.39667037,11.8635466 9.79502238,12.7671393 C10.099435,12.9638458 10.5056723,12.8765328 10.7023788,12.5721203 C10.8990854,12.2677077 10.8117724,11.8614704 10.5073598,11.6647638 C9.4559885,10.9853845 8.90327706,10.0494981 8.81595773,8.80077353 Z" fill="#000000" opacity="0.3"></path>
    </g>
</svg>
